icons/sword-fill.svg

<svg xmlns="http://www.w3.org/2000/svg" width="24" height="24" fill="none"><g clip-path="url(#a)"><g><path fill="#121212" d="M7.04998 13.406L10.584 16.942L9.17098 18.356L10.586 19.771L9.17198 21.185L6.69698 18.71L3.86798 21.539L2.45398 20.125L5.28298 17.295L2.80798 14.821L4.22198 13.407L5.63598 14.82L7.04898 13.406H7.04998ZM2.99998 3L6.54598 3.003L18.363 14.821L19.778 13.407L21.192 14.821L18.718 17.296L21.546 20.125L20.132 21.539L17.303 18.71L14.828 21.185L13.414 19.771L14.828 18.356L3.00298 6.531L2.99998 3ZM17.457 3L21 3.003L21.002 6.526L16.949 10.578L13.413 7.043L17.457 3Z"/></g></g><defs><clipPath id="a"><rect width="24" height="24" fill="white"/></clipPath></defs></svg>

<svg width="24" height="24" fill="none" xmlns="http://www.w3.org/2000/svg"><g clip-path="url(#a)"><path d="m7.05 13.406 3.534 3.536-1.413 1.414 1.415 1.415-1.414 1.414-2.475-2.475-2.829 2.829-1.414-1.414 2.829-2.83-2.475-2.474 1.414-1.414 1.414 1.413 1.413-1.414h.001ZM3 3l3.546.003 11.817 11.818 1.415-1.414 1.414 1.414-2.474 2.475 2.828 2.829-1.414 1.414-2.829-2.829-2.475 2.475-1.414-1.414 1.414-1.415L3.003 6.531 3 3Zm14.457 0L21 3.003l.002 3.523-4.053 4.052-3.536-3.535L17.457 3Z" /></g><defs><clipPath id="a"><path fill="#fff" d="M0 0h24v24H0z"/></clipPath></defs></svg>
